icons/arrow-duo-top.svg

<svg width="24" height="24" viewBox="0 0 24 24" fill="none" xmlns="http://www.w3.org/2000/svg">
<path fill-rule="evenodd" clip-rule="evenodd" d="M5.75 11.4501C6.16421 11.4501 6.5 11.7859 6.5 12.2001V18.2001C6.5 18.6143 6.16421 18.9501 5.75 18.9501C5.33579 18.9501 5 18.6143 5 18.2001V12.2001C5 11.7859 5.33579 11.4501 5.75 11.4501Z" fill="black"/>
<path fill-rule="evenodd" clip-rule="evenodd" d="M5.69997 12.4107L8.01963 14.7304C8.31252 15.0233 8.78739 15.0233 9.08029 14.7304C9.37318 14.4375 9.37318 13.9626 9.08029 13.6697L6.58029 11.1697C6.08739 10.6768 5.31254 10.6768 4.81965 11.1697L2.31965 13.6697C2.02675 13.9626 2.02675 14.4375 2.31965 14.7304C2.61254 15.0233 3.08741 15.0233 3.38031 14.7304L5.69997 12.4107Z" fill="black"/>
<path fill-rule="evenodd" clip-rule="evenodd" d="M16.0499 6.25C16.4641 6.25 16.7999 6.58579 16.7999 7V18.2C16.7999 18.6142 16.4641 18.95 16.0499 18.95C15.6357 18.95 15.2999 18.6142 15.2999 18.2V7C15.2999 6.58579 15.6357 6.25 16.0499 6.25Z" fill="black"/>
<path fill-rule="evenodd" clip-rule="evenodd" d="M15.9774 6.55715C15.9592 6.56546 15.9253 6.5854 15.8803 6.63038L11.3803 11.1304C11.0874 11.4233 10.6125 11.4233 10.3196 11.1304C10.0268 10.8375 10.0268 10.3626 10.3196 10.0697L14.8196 5.56972C15.1315 5.25788 15.5387 5.05005 16 5.05005C16.4612 5.05005 16.8685 5.25788 17.1803 5.56972L21.6803 10.0697C21.9732 10.3626 21.9732 10.8375 21.6803 11.1304C21.3874 11.4233 20.9125 11.4233 20.6196 11.1304L16.1196 6.63038C16.0747 6.5854 16.0407 6.56546 16.0225 6.55715C16.0134 6.553 16.0075 6.55135 16.0046 6.5507C16.0017 6.55006 16.0004 6.55005 16 6.55005C15.9996 6.55005 15.9983 6.55006 15.9954 6.5507C15.9925 6.55135 15.9865 6.553 15.9774 6.55715Z" fill="black"/>
</svg>

<svg xmlns="http://www.w3.org/2000/svg" fill="none" viewBox="0 0 24 24">
  <path fill="#000" fill-rule="evenodd" d="M5.75 11.45a.75.75 0 0 1 .75.75v6a.75.75 0 0 1-1.5 0v-6a.75.75 0 0 1 .75-.75Z" clip-rule="evenodd"/>
  <path fill="#000" fill-rule="evenodd" d="m5.7 12.41 2.32 2.32a.75.75 0 1 0 1.06-1.06l-2.5-2.5a1.233 1.233 0 0 0-1.76 0l-2.5 2.5a.75.75 0 0 0 1.06 1.06l2.32-2.32Zm10.35-6.16a.75.75 0 0 1 .75.75v11.2a.75.75 0 0 1-1.5 0V7a.75.75 0 0 1 .75-.75Z" clip-rule="evenodd"/>
  <path fill="#000" fill-rule="evenodd" d="M15.977 6.557a.351.351 0 0 0-.097.073l-4.5 4.5a.75.75 0 0 1-1.06-1.06l4.5-4.5c.312-.312.719-.52 1.18-.52.461 0 .869.208 1.18.52l4.5 4.5a.75.75 0 0 1-1.06 1.06l-4.5-4.5a.35.35 0 0 0-.098-.073A.094.094 0 0 0 16 6.55h-.005a.094.094 0 0 0-.018.007Z" clip-rule="evenodd"/>
</svg>
